**kern	**kern
*staff2	*staff1
*clefG2	*clefG2
*k[f#c#]	*k[f#c#]
*M3/4	*M3/4
*D:	*D
*clefF2	*clefG2
=177:|!|:	=177:|!|:
*^	*
(8c#L	[2.A	16eLL
.	.	16ee
8B#J	.	16d#
.	.	16dd#JJ
8c#L	.	16eLL
.	.	16ee
8B#J	.	16d#
.	.	16dd#JJ
8c#L	.	16eLL
.	.	16ee
8d#J	.	16f#
.	.	16ff#JJ
=178	=178	=178
8eL	2.A]	16gLL
.	.	16gg
8d#J	.	16f#
.	.	16ff#JJ
8eL	.	16gLL
.	.	16gg
8d#J	.	16f#
.	.	16ff#JJ
8eL	.	16gLL
.	.	16gg
8c#J)	.	16e
.	.	16eeJJ
=179	=179	=179
(8dL	2.D	16f#LL
.	.	16ff#
8c#J	.	16e#
.	.	16ee#JJ
8dL	.	16f#LL
.	.	16ff#
8c#J	.	16e#
.	.	16ee#JJ
8dL	.	16f#LL
.	.	16ff#
8eJ	.	16g
.	.	16ggJJ
=180	=180	=180
8f#L	2.d	16aLL
.	.	16aa
8e#J	.	16g#
.	.	16gg#JJ
8f#L	.	16aLL
.	.	16aa
8e#J	.	16g#
.	.	16gg#JJ
8f#)	.	16aLL
.	.	16aa
8r	.	16dd
.	.	16dddJJ
*v	*v	*
=181	=181
16GGGLL	4cc# 4aa 4ccc#
16GG	.
16AAA	.
16AAJJ	.
16BBBLL	4b 4gg 4bb
16BB	.
16CC#	.
16C#JJ	.
16DDLL	8aL 8ff# 8aa
16D	.
16FF#	8ddJ 8aa 8ddd
16F#JJ	.
=182	=182
16GGLL	4cc# 4aa 4ccc#
16G	.
16AA	.
16AJJ	.
16BBLL	4b 4gg 4bb
16B	.
16C#	.
16c#JJ	.
16DLL	8aL 8ff# 8aa
16d	.
16C#	8eeJ 8aa
16c#JJ	.
=183	=183
16BBLL	8ddL 8gg
16B	.
16AA	8cc#J 8ff#
16AJJ	.
16GGLL	8bL 8ee
16G	.
16FF#	8aJ 8dd
16F#JJ	.
16EELL	8gL 8cc#
16E	.
16DD	8f#J 8dd
16DJJ	.
=184	=184
4AAA 4AA	8eL 8cc# 8ee
.	16c#L
.	16cc#JJ
4r	16dLL
.	16dd
.	16e
.	16eeJJ
4r	16f#LL
.	16ff#
.	16g
.	16ggJJ
=	=
*-	*-
